icons/_assets/table_column_add_after.svg

<svg width="100" height="100" xmlns="http://www.w3.org/2000/svg"><path d="M40.7352941,5 L40.7352941,90.5 L5,95 L5,9.5 L40.7352941,5 Z M34.1176471,12.5017647 L11.6176471,15.3354412 L11.6176471,87.4969118 L34.1176471,84.6632353 L34.1176471,12.5017647 Z M72.5,40.7352941 C84.9264069,40.7352941 95,50.8088872 95,63.2352941 C95,75.661701 84.9264069,85.7352941 72.5,85.7352941 C60.0735931,85.7352941 50,75.661701 50,63.2352941 C50,50.8088872 60.0735931,40.7352941 72.5,40.7352941 Z M72.4999128,49.8941176 C70.984114,49.8941176 70.5356094,51.012405 70.5356094,52.3921534 L70.5356094,61.5398606 L61.3740414,62.5224213 C60.0043319,62.6789649 59.0193068,63.3826782 59.1750123,64.7532672 C59.3198935,66.0280981 60.4006734,66.4353779 61.6538119,66.4353779 L70.5356094,65.5011125 L70.5356094,74.0784348 C70.5356094,75.4581832 71.1202115,76.5764706 72.4999128,76.5764706 C73.8804467,76.5764706 74.4642162,75.4581832 74.4642162,74.0784348 L74.4642162,64.9315603 L83.6266168,63.9481669 C84.997159,63.7916233 85.9813515,63.08791 85.8248132,61.717321 C85.6691077,60.3467321 84.4326222,59.891157 83.0604147,60.0518639 L74.4642162,60.9711411 L74.4642162,52.3921534 C74.4642162,51.012405 74.0157116,49.8941176 72.4999128,49.8941176 Z" fill="currentColor" fill-rule="evenodd"/></svg>

<svg width="100" height="100" xmlns="http://www.w3.org/2000/svg"><path d="M40.735 5v85.5L5 95V9.5L40.735 5zm-6.617 7.502-22.5 2.833v72.162l22.5-2.834V12.502zM72.5 40.735c12.426 0 22.5 10.074 22.5 22.5 0 12.427-10.074 22.5-22.5 22.5S50 75.662 50 63.235c0-12.426 10.074-22.5 22.5-22.5zm0 9.16c-1.516 0-1.964 1.117-1.964 2.497v9.148l-9.162.982c-1.37.157-2.355.86-2.199 2.231.145 1.275 1.226 1.682 2.479 1.682l8.882-.934v8.577c0 1.38.584 2.498 1.964 2.498s1.964-1.118 1.964-2.498v-9.146l9.163-.984c1.37-.156 2.354-.86 2.198-2.23-.156-1.371-1.392-1.827-2.765-1.666l-8.596.92v-8.58c0-1.38-.448-2.498-1.964-2.498z" fill="currentColor" fill-rule="evenodd"/></svg>
